svg/OSM-icons/historic #61210b °ffffff !label=enhistoric,deHistorisches/19005;historic=building;[addr];[contact];!label=enhistoric building,deHistorisches Gebäude.svg

<svg xmlns="http://www.w3.org/2000/svg" viewBox="0 0 580 580" enable-background="new 0 0 580 580"><path fill="#111" stroke="#eee" stroke-width="3.408" d="m66.28 1.768c-41.34 0-64.57 21.371-64.57 65.04v450.12c0 40.844 20.894 62.23 62.19 62.23h452.02c41.31 0 62.23-20.316 62.23-62.23v-450.12c0-42.601-20.923-65.04-63.52-65.04-.003 0-448.49-.143-448.35 0z"/><path fill="#fff" d="m405.5 208v-76.8l-31-83.19-31 83.19v58.62h-107v-58.62l-31-83.19-31 83.19v76.8l-63.999 60.919v25h23.507v238.08h311.98v-238.08h23.507v-25l-63.999-60.919m-210-65.58l9-14 9 14v81h-18v-81m29.05 289.23h-40.11v-41.641h40.11v41.641m0-45.836h-40.11v-11.459h40.11v11.459m0-23.14h-40.11v-41.641h40.11v41.641m0-45.836h-40.11v-11.459h40.11v11.459m16.894-11.459h40.11v11.459h-40.11v-11.459m0 15.654h40.11v41.641h-40.11v-41.641m0 53.32h40.11v11.459h-40.11v-11.459m0 15.655h40.11v41.641h-40.11v-41.641m71.45 135.04c-1.674-.351-3.406-.537-5.184-.537h-40.768v-57.812c0-12.689 10.287-22.977 22.976-22.977 12.69 0 22.977 10.287 22.977 22.977v58.35m25.65-93.4h-40.11v-41.641h40.11v41.641m0-45.836h-40.11v-11.459h40.11v11.459m0-23.14h-40.11v-41.641h40.11v41.641m0-45.836h-40.11v-11.459h40.11v11.459m26.947-174.42l9-14 9 14v81h-18v-81m30.05 289.23h-40.11v-41.641h40.11v41.641m0-45.836h-40.11v-11.459h40.11v11.459m0-23.14h-40.11v-41.641h40.11v41.641m0-45.836h-40.11v-11.459h40.11v11.459"/></svg>

<?xml version="1.0" encoding="utf-8"?>
<!-- Generator: Adobe Illustrator 15.0.0, SVG Export Plug-In . SVG Version: 6.00 Build 0)  -->
<!DOCTYPE svg PUBLIC "-//W3C//DTD SVG 1.1//EN" "http://www.w3.org/Graphics/SVG/1.1/DTD/svg11.dtd">
<svg version="1.1" xmlns="http://www.w3.org/2000/svg" xmlns:xlink="http://www.w3.org/1999/xlink" x="0px" y="0px" width="580px"
	 height="580px" viewBox="0 0 580 580" enable-background="new 0 0 580 580" xml:space="preserve">
<g id="Layer_2">
	<g id="g1327">
		<path id="path1329" fill="#111111" stroke="#EEEEEE" stroke-width="3.408" d="M66.275,1.768
			c-41.335,0-64.571,21.371-64.571,65.036v450.123c0,40.844,20.894,62.229,62.192,62.229H515.92
			c41.307,0,62.229-20.316,62.229-62.229V66.804c0-42.601-20.923-65.036-63.522-65.036C514.624,1.768,66.133,1.625,66.275,1.768z"/>
	</g>
</g>
<g id="svg2" xmlns:inkscape="http://www.inkscape.org/namespaces/inkscape" xmlns:cc="http://creativecommons.org/ns#" xmlns:svg="http://www.w3.org/2000/svg" xmlns:dc="http://purl.org/dc/elements/1.1/" xmlns:rdf="http://www.w3.org/1999/02/22-rdf-syntax-ns#" xmlns:sodipodi="http://sodipodi.sourceforge.net/DTD/sodipodi-0.dtd" inkscape:output_extension="org.inkscape.output.svg.inkscape" sodipodi:docname="waste_bin.svg" sodipodi:version="0.32" inkscape:version="0.46">
	<path fill="#FFFFFF" d="M405.5,207.996v-76.802l-31-83.189l-31,83.189v58.618h-107v-58.618l-31-83.189l-31,83.189v76.802
		l-63.999,60.919v25.002h23.507v238.079h311.984V293.917h23.507v-25.002L405.5,207.996z M195.5,142.417l9-14l9,14v81h-18V142.417z
		 M224.553,431.649h-40.106v-41.641h40.106V431.649z M224.553,385.813h-40.106v-11.459h40.106V385.813z M224.553,362.671h-40.106
		V321.03h40.106V362.671z M224.553,316.835h-40.106v-11.459h40.106V316.835z M241.447,305.376h40.106v11.459h-40.106V305.376z
		 M241.447,321.03h40.106v41.641h-40.106V321.03z M241.447,374.354h40.106v11.459h-40.106V374.354z M241.447,390.009h40.106v41.641
		h-40.106V390.009z M312.902,525.052c-1.674-0.351-3.406-0.537-5.184-0.537H266.95v-57.812c0-12.689,10.287-22.977,22.976-22.977
		c12.69,0,22.977,10.287,22.977,22.977V525.052z M338.553,431.649h-40.105v-41.641h40.105V431.649z M338.553,385.813h-40.105
		v-11.459h40.105V385.813z M338.553,362.671h-40.105V321.03h40.105V362.671z M338.553,316.835h-40.105v-11.459h40.105V316.835z
		 M365.5,142.417l9-14l9,14v81h-18V142.417z M395.553,431.649h-40.105v-41.641h40.105V431.649z M395.553,385.813h-40.105v-11.459
		h40.105V385.813z M395.553,362.671h-40.105V321.03h40.105V362.671z M395.553,316.835h-40.105v-11.459h40.105V316.835z"/>
</g>
</svg>
